Product design LandingPage/youtube.svg

<svg xmlns="http://www.w3.org/2000/svg" width="26" height="17.999" viewBox="0 0 26 17.999">
  <path id="youtube" d="M585.994,347.344a9.768,9.768,0,0,0-1.075-4.806,3.464,3.464,0,0,0-2.031-1.164,137.529,137.529,0,0,0-19.736-.011,3.4,3.4,0,0,0-1.724.861c-1.063.966-1.181,2.618-1.3,4.014a55.149,55.149,0,0,0,0,7.541,10.906,10.906,0,0,0,.354,2.327,3.627,3.627,0,0,0,.838,1.582,3.4,3.4,0,0,0,1.76.908,54.1,54.1,0,0,0,7.677.384c4.134.058,7.76,0,12.047-.326a3.417,3.417,0,0,0,1.807-.907,2.891,2.891,0,0,0,.721-1.164,12.172,12.172,0,0,0,.614-3.956C585.994,351.975,585.994,348.042,585.994,347.344Zm-15.661,5.981v-7.2l6.992,3.619C575.364,350.811,572.778,352.022,570.333,353.325Z" transform="translate(-560 -341)" fill="#fff"/>
</svg>

<svg width="1000" height="428" viewBox="0 0 1000 428" fill="none" xmlns="http://www.w3.org/2000/svg">

        <path d="M585.994 347.344C586.052 345.678 585.683 344.025 584.919 342.538C584.401 341.928 583.682 341.516 582.888 341.374C579.601 341.081 576.302 340.96 573.002 341.014C569.715 340.958 566.427 341.074 563.152 341.363C562.505 341.479 561.905 341.778 561.428 342.224C560.365 343.19 560.247 344.842 560.129 346.238C559.957 348.749 559.957 351.268 560.129 353.779C560.163 354.565 560.281 355.345 560.483 356.106C560.625 356.694 560.913 357.237 561.321 357.688C561.802 358.158 562.416 358.474 563.081 358.596C565.627 358.906 568.193 359.034 570.758 358.98C574.892 359.038 578.518 358.98 582.805 358.654C583.487 358.54 584.118 358.223 584.612 357.747C584.943 357.421 585.19 357.022 585.333 356.583C585.755 355.306 585.962 353.97 585.947 352.627C585.994 351.975 585.994 348.042 585.994 347.344ZM570.333 353.325V346.122L577.325 349.741C575.364 350.811 572.778 352.022 570.333 353.325Z" fill="black"/>


</svg>
